!!!OTL: VOEGLEIN IM HAIN
!!!ARE: Europa, Mitteleuropa, Deutschland
!!!SCT: F0305
!!!YEM: Copyright 1995, estate of Helmut Schaffrath.
**kern
*ICvox
*Ivox
*M3/8
*k[f#]
*G:
=1
{8d
8g
8a
=2
4.b}
=3
{8g
8b
8cc
=4
4.dd}
=5
{8ee
8a
8b
=6
16cc
16b
16cc
16dd
8cc}
=7
{8dd
8g
8a
=8
16b
16a
16b
16cc
8b}
=9
{8dd
8cc
8b
=10
8a
8f#
8d}
=11
{8dd
8cc
8b
=12
8a
8f#
8d}
=13
{8cc
8cc
8cc
=14
8.ee
16dd
8cc}
=15
{8dd
8a
8b
=16
16cc
16b
16cc
16dd
8cc}
=17
{8ee
8cc
8a
=18
4.f#}
=19
{8d
8g
8a
=20
4.b}
=21
{8g
8b
8cc
=22
4.dd}
=23
{[4.dd
=24
8dd]
8d
8b
=25
4.g}
==
!!!AGN: Jugend - Lied, Belehrung
!!!ONB: ESAC (Essen Associative Code) Database: FINK
!!!AMT: simple triple
!!!AIN: vox
!!!EED: Helmut Schaffrath
!!!EEV: 1.0
*-
